packages/tokens/icons/shopping/size16Px.svg

<svg viewBox="0 0 16 16" fill="none" xmlns="http://www.w3.org/2000/svg" width="1em" height="1em"><path d="M3.92875 5.9251C3.96866 5.12678 4.62756 4.5 5.42687 4.5L10.5731 4.5C11.3724 4.5 12.0313 5.12678 12.0713 5.92509L12.4213 12.9251C12.4641 13.7819 11.781 14.5 10.9231 14.5L5.07687 14.5C4.21903 14.5 3.53591 13.7819 3.57875 12.9251L3.92875 5.9251Z" stroke="currentColor"/><path d="M10.5661 6.5C10.5661 4.567 10.4999 1.5 7.99992 1.5C5.49992 1.5 5.52198 4.567 5.52198 6.5" stroke="currentColor" stroke-linecap="round"/></svg>

<svg xmlns="http://www.w3.org/2000/svg" fill="none" viewBox="0 0 16 16" width="1em" height="1em"><path stroke="currentColor" d="M3.929 5.925A1.5 1.5 0 0 1 5.427 4.5h5.146a1.5 1.5 0 0 1 1.498 1.425l.35 7a1.5 1.5 0 0 1-1.498 1.575H5.077a1.5 1.5 0 0 1-1.498-1.575l.35-7Z"/><path stroke="currentColor" stroke-linecap="round" d="M10.566 6.5c0-1.933-.066-5-2.566-5s-2.478 3.067-2.478 5"/></svg>
